Origami/48x48/apps/tresorit.svg

<svg width="48" height="48" version="1" xmlns="http://www.w3.org/2000/svg">
 <path d="m24.108 4.0013a4.5656 4.5479 0 0 0 -2.391 0.6067l-13.434 7.726a4.5656 4.5479 0 0 0 -2.283 3.939v15.453a4.5656 4.5479 0 0 0 2.2828 3.9386l13.434 7.7264a4.5656 4.5479 0 0 0 4.5656 0l13.434-7.7264a4.5656 4.5479 0 0 0 2.283 -3.939v-15.453a4.5656 4.5479 0 0 0 -2.283 -3.939l-13.434-7.726a4.5656 4.5479 0 0 0 -2.175 -0.6067z" fill="#4f4f4f"/>
 <path d="m23.544922 4.0253906a4.5656 4.5479 0 0 0 -0.072266 0.0097656 4.5656 4.5479 0 0 1 0.091797 -0.0097656 4.5656 4.5479 0 0 0 -0.019531 0zm-0.416016 0.0605469a4.5656 4.5479 0 0 0 -0.162109 0.0371094 4.5656 4.5479 0 0 1 0.162109 -0.0371094zm-0.4375 0.1074219a4.5656 4.5479 0 0 0 -0.148437 0.0488281 4.5656 4.5479 0 0 1 0.148437 -0.0488281zm-0.443359 0.15625a4.5656 4.5479 0 0 0 -0.167969 0.0761718 4.5656 4.5479 0 0 1 0.167969 -0.0761718zm-0.396485 0.1855468a4.5656 4.5479 0 0 0 -0.134765 0.0722657 4.5656 4.5479 0 0 1 0.134765 -0.0722657zm-13.568359 7.7988278a4.5656 4.5479 0 0 0 -1.0664062 0.84961 4.5656 4.5479 0 0 1 1.0664062 -0.84961zm-1.0664062 0.84961a4.5656 4.5479 0 0 0 -1.203125 2.796875 4.5656 4.5479 0 0 1 1.203125 -2.796875zm-1.203125 2.796875a4.5656 4.5479 0 0 0 -0.0136719 0.292969v15.453124a4.5656 4.5479 0 0 0 2.2832031 3.9375l13.433594 7.726563a4.5656 4.5479 0 0 0 2.283203 0.605469v-16a4.5656 4.5479 0 0 1 -2.283203 -0.605469l-13.433594-7.726563a4.5656 4.5479 0 0 1 -2.2695312 -3.683593z" style="fill:#ffffff;opacity:.1"/>
 <path d="m24.107 4.002a4.5656 4.5479 0 0 0 -2.39 0.6054l-13.434 7.7266a4.5656 4.5479 0 0 0 -2.283 3.939v1a4.5656 4.5479 0 0 1 2.2832 -3.939l13.434-7.7266a4.5656 4.5479 0 0 1 2.3906 -0.60547 4.5656 4.5479 0 0 1 2.1758 0.60547l13.434 7.7266a4.5656 4.5479 0 0 1 2.283 3.939v-1a4.5656 4.5479 0 0 0 -2.283 -3.939l-13.434-7.7266a4.5656 4.5479 0 0 0 -2.176 -0.6054z" fill="#fff" opacity=".1"/>
 <path d="m6 31.726v1a4.5656 4.5479 0 0 0 2.2832 3.9375l13.434 7.7266a4.5656 4.5479 0 0 0 4.5664 0l13.434-7.727a4.5656 4.5479 0 0 0 2.283 -3.938v-1a4.5656 4.5479 0 0 1 -2.2832 3.9375l-13.434 7.7266a4.5656 4.5479 0 0 1 -4.5664 0l-13.434-7.727a4.5656 4.5479 0 0 1 -2.283 -3.938z" opacity=".2"/>
 <path d="m24.107422 4v0.0019531a4.5656 4.5479 0 0 0 -2.390625 0.6054688l-13.433594 7.7265621a4.5656 4.5479 0 0 0 -2.2695312 3.646485 4.5656 4.5479 0 0 0 2.2695312 3.683593l13.433594 7.726563a4.5656 4.5479 0 0 0 4.566406 0l13.433594-7.726563a4.5656 4.5479 0 0 0 2.269531 -3.648437 4.5656 4.5479 0 0 0 -2.269531 -3.681641l-13.433594-7.7265621a4.5656 4.5479 0 0 0 -2.175781 -0.6074219z" style="fill:#ffffff;opacity:.2"/>
 <path d="m30.103516 7.8046405-24.103516 13.916016v11.005859a4.5656 4.5479 0 0 0 0.0332031 0.521485l34.060547-19.664063a4.5656 4.5479 0 0 0 -0.376953 -0.25l-9.613281-5.5292965z" style="opacity:.2"/>
 <path d="m30.103516 6.8046875l-24.103516 13.916016v11.005859a4.5656 4.5479 0 0 0 0.0332031 0.521485l34.060547-19.664063a4.5656 4.5479 0 0 0 -0.376953 -0.25l-9.613281-5.5292965z" style="fill:#00cbec"/>
 <path d="m8.0703125 19.525391l-2.0703125 1.195312v11.005859a4.5656 4.5479 0 0 0 0.03125 0.50586 4.5656 4.5479 0 0 0 0.0019531 0.015625l12.041016-6.951172-9.7910159-5.632813a4.5656 4.5479 0 0 1 -0.2128906 -0.138671z" style="fill:#00a7c2"/>
</svg>

<svg xmlns="http://www.w3.org/2000/svg" width="48" height="48" version="1">
 <path fill="#4f4f4f" d="m24.108 4.0013a4.5656 4.5479 0 0 0 -2.391 0.6067l-13.434 7.726a4.5656 4.5479 0 0 0 -2.283 3.939v15.453a4.5656 4.5479 0 0 0 2.2828 3.9386l13.434 7.7264a4.5656 4.5479 0 0 0 4.5656 0l13.434-7.7264a4.5656 4.5479 0 0 0 2.283 -3.939v-15.453a4.5656 4.5479 0 0 0 -2.283 -3.939l-13.434-7.726a4.5656 4.5479 0 0 0 -2.175 -0.6067z"/>
 <path style="opacity:0.1;fill:#ffffff" d="M 23.544922 4.0253906 A 4.5656 4.5479 0 0 0 23.472656 4.0351562 A 4.5656 4.5479 0 0 1 23.564453 4.0253906 A 4.5656 4.5479 0 0 0 23.544922 4.0253906 z M 23.128906 4.0859375 A 4.5656 4.5479 0 0 0 22.966797 4.1230469 A 4.5656 4.5479 0 0 1 23.128906 4.0859375 z M 22.691406 4.1933594 A 4.5656 4.5479 0 0 0 22.542969 4.2421875 A 4.5656 4.5479 0 0 1 22.691406 4.1933594 z M 22.248047 4.3496094 A 4.5656 4.5479 0 0 0 22.080078 4.4257812 A 4.5656 4.5479 0 0 1 22.248047 4.3496094 z M 21.851562 4.5351562 A 4.5656 4.5479 0 0 0 21.716797 4.6074219 A 4.5656 4.5479 0 0 1 21.851562 4.5351562 z M 8.2832031 12.333984 A 4.5656 4.5479 0 0 0 7.2167969 13.183594 A 4.5656 4.5479 0 0 1 8.2832031 12.333984 z M 7.2167969 13.183594 A 4.5656 4.5479 0 0 0 6.0136719 15.980469 A 4.5656 4.5479 0 0 1 7.2167969 13.183594 z M 6.0136719 15.980469 A 4.5656 4.5479 0 0 0 6 16.273438 L 6 31.726562 A 4.5656 4.5479 0 0 0 8.2832031 35.664062 L 21.716797 43.390625 A 4.5656 4.5479 0 0 0 24 43.996094 L 24 27.996094 A 4.5656 4.5479 0 0 1 21.716797 27.390625 L 8.2832031 19.664062 A 4.5656 4.5479 0 0 1 6.0136719 15.980469 z"/>
 <path fill="#fff" opacity=".1" d="m24.107 4.002a4.5656 4.5479 0 0 0 -2.39 0.6054l-13.434 7.7266a4.5656 4.5479 0 0 0 -2.283 3.939v1a4.5656 4.5479 0 0 1 2.2832 -3.939l13.434-7.7266a4.5656 4.5479 0 0 1 2.3906 -0.60547 4.5656 4.5479 0 0 1 2.1758 0.60547l13.434 7.7266a4.5656 4.5479 0 0 1 2.283 3.939v-1a4.5656 4.5479 0 0 0 -2.283 -3.939l-13.434-7.7266a4.5656 4.5479 0 0 0 -2.176 -0.6054z"/>
 <path opacity=".2" d="m6 31.726v1a4.5656 4.5479 0 0 0 2.2832 3.9375l13.434 7.7266a4.5656 4.5479 0 0 0 4.5664 0l13.434-7.727a4.5656 4.5479 0 0 0 2.283 -3.938v-1a4.5656 4.5479 0 0 1 -2.2832 3.9375l-13.434 7.7266a4.5656 4.5479 0 0 1 -4.5664 0l-13.434-7.727a4.5656 4.5479 0 0 1 -2.283 -3.938z"/>
 <path style="opacity:0.2;fill:#ffffff" d="M 24.107422 4 L 24.107422 4.0019531 A 4.5656 4.5479 0 0 0 21.716797 4.6074219 L 8.2832031 12.333984 A 4.5656 4.5479 0 0 0 6.0136719 15.980469 A 4.5656 4.5479 0 0 0 8.2832031 19.664062 L 21.716797 27.390625 A 4.5656 4.5479 0 0 0 26.283203 27.390625 L 39.716797 19.664062 A 4.5656 4.5479 0 0 0 41.986328 16.015625 A 4.5656 4.5479 0 0 0 39.716797 12.333984 L 26.283203 4.6074219 A 4.5656 4.5479 0 0 0 24.107422 4 z"/>
 <path style="opacity:0.2" d="M 30.103516,7.8046405 6,21.720656 6,32.726515 A 4.5656,4.5479 0 0 0 6.0332031,33.248 L 40.09375,13.583937 a 4.5656,4.5479 0 0 0 -0.376953,-0.25 L 30.103516,7.8046405 Z"/>
 <path style="fill:#00cbec" d="M 30.103516 6.8046875 L 6 20.720703 L 6 31.726562 A 4.5656 4.5479 0 0 0 6.0332031 32.248047 L 40.09375 12.583984 A 4.5656 4.5479 0 0 0 39.716797 12.333984 L 30.103516 6.8046875 z"/>
 <path style="fill:#00a7c2" d="M 8.0703125 19.525391 L 6 20.720703 L 6 31.726562 A 4.5656 4.5479 0 0 0 6.03125 32.232422 A 4.5656 4.5479 0 0 0 6.0332031 32.248047 L 18.074219 25.296875 L 8.2832031 19.664062 A 4.5656 4.5479 0 0 1 8.0703125 19.525391 z"/>
</svg>
